X: 3726
T: Bimíd Ag Ól
R: jig
M: 6/8
K: Dmajor
|:A,DE EFF|GFG AAA,|A,DE EFF|GED EDC|
A,DE EFF|GFG ABc|ded dcA|1 GEA D2 A,:|2 GEA D2 D||
|:DFA ded|dcA Bcc|DFA ded|dcA GEA|
DFA ded|ded Bcd|e2 e ecA|1 GEA D2 D:|2 GEA D3||

